2020/04-Sprint-07-Oekologischer-Fußabdruck/kk-variation/assets/headline-badge.svg

<svg xmlns="http://www.w3.org/2000/svg" width="32" height="17" viewBox="0 0 32 17">
  <path fill="#6E964B" fill-rule="evenodd" d="M16.867905.532444393C16.8861471.50164217 16.9061545.473745818 16.9238081.442362421 17.0326722.240113863 16.8949739.015199518 16.668419.0029948636 14.7471162-.103941156 14.0109601 2.67930121 13.5360776 4.11305751 12.7551989 6.47204285 12.6363312 9.6673376 14.4958463 11.5567343 14.7877196 11.8531331 15.3732314 11.5526661 15.2231756 11.1377079 14.4646582 9.03443909 14.0474442 7.37867432 14.5146768 5.13418026 14.7282857 4.10550225 15.135496 3.08612303 15.6068477 2.14985168 15.8022145 1.76220861 16.0764342 1.48324509 16.3430039 1.19730747 16.71373 2.73160687 17.38751 4.19558422 17.6999792 5.7641729 17.9082919 6.80738026 17.9335955 7.82559714 17.7547054 8.87287271 17.5328582 10.1758649 16.4071454 10.7953964 15.533291 11.6415857 15.436196 11.7357359 15.4720917 11.9374033 15.6192053 11.962975 17.6317185 12.3110982 18.8539378 10.1346015 18.9698632 8.36260193 19.1363957 5.80950447 18.6367982 2.51366662 16.867905.532444393M1.31496505 7.32384039C1.30483487 7.28875447 1.29875676 7.25425332 1.28592519 7.21858264 1.20758511 6.9952023.905705652 6.93029335.708504755 7.08350186-.967702873 8.3799265.751051524 10.9207317 1.5574141 12.2984387 2.88446808 14.5638194 5.45753458 16.9613571 8.57222821 17 9.06185373 17.006384 9.2928219 16.3701594 8.82278141 16.1766021 6.43881165 15.1965354 4.70992707 14.2959969 3.21876412 12.337618 2.53598978 11.4400032 2.01935045 10.4108163 1.62629934 9.39624856 1.46421641 8.97638709 1.45678761 8.57874669 1.43787794 8.17993677 3.02629064 9.02609214 4.80582614 9.60384024 6.37532917 10.5160741 7.41941338 11.1224757 8.29195981 11.841737 9.01930696 12.7270716 9.92562067 13.8293542 9.51433524 15.0825062 9.50015298 16.3198695 9.49880229 16.4572894 9.69667853 16.5771663 9.83985179 16.490621 11.7922757 15.3041322 10.9818611 12.8551352 9.59605205 11.4891235 7.59973063 9.52255787 4.43168471 7.49400709 1.31496505 7.32384039M30.6844758 6.32384039C30.6952814 6.28875447 30.7013596 6.25425332 30.7141913 6.21858264 30.7925323 5.9952023 31.0944154 5.93029335 31.2916187 6.08350186 32.9678464 7.3799265 31.248396 9.92073166 30.4426992 11.2984387 29.1156293 13.5638194 26.5425319 15.9613571 23.4278009 16 22.9374942 16.006384 22.7065232 15.3701594 23.1765694 15.1766021 25.5612431 14.1965354 27.2901484 13.2959969 28.7806539 11.337618 29.4641117 10.4400032 29.9807573 9.41081634 30.3738131 8.39624856 30.535898 7.97638709 30.5433269 7.57874669 30.5622368 7.17993677 28.973805 8.02609214 27.1942482 8.60384024 25.6247263 9.51607409 24.5806296 10.1224757 23.7080727 10.841737 22.9800414 11.7270716 22.0743922 12.8293542 22.4850072 14.0825062 22.4991897 15.3198695 22.5012157 15.4572894 22.3033371 15.5771663 22.1601621 15.490621 20.2077148 14.3041322 21.0181391 11.8551352 22.4039648 10.4891235 24.4003101 8.52255787 27.5683941 6.49400709 30.6844758 6.32384039"/>
</svg>

<svg xmlns="http://www.w3.org/2000/svg" width="32" height="17"><path fill="#6E964B" fill-rule="evenodd" d="M16.868.532c.018-.03.038-.058.056-.09.109-.202-.029-.427-.256-.439-1.92-.107-2.657 2.676-3.132 4.11-.78 2.359-.9 5.554.96 7.444.292.296.877-.004.727-.42-.758-2.103-1.176-3.758-.708-6.003.213-1.028.62-2.048 1.092-2.984.195-.388.47-.667.736-.953.37 1.535 1.045 2.999 1.357 4.567a8.394 8.394 0 01.055 3.109c-.222 1.303-1.348 1.922-2.222 2.769-.097.094-.06.295.086.321 2.013.348 3.235-1.828 3.35-3.6.167-2.553-.332-5.85-2.101-7.83M1.315 7.322c-.01-.034-.016-.069-.03-.104-.077-.224-.38-.289-.576-.135-1.677 1.296.042 3.837.848 5.214 1.327 2.266 3.9 4.663 7.015 4.702.49.006.72-.63.25-.823-2.383-.98-4.112-1.881-5.603-3.84-.683-.897-1.2-1.926-1.593-2.94-.162-.42-.17-.818-.188-1.217 1.588.846 3.368 1.424 4.937 2.336 1.044.606 1.917 1.326 2.644 2.211.907 1.102.495 2.356.481 3.593-.001.137.197.257.34.17 1.952-1.186 1.142-3.635-.244-5C7.6 9.522 4.432 7.493 1.315 7.323m29.37-1c.01-.035.016-.07.03-.105.078-.224.38-.289.577-.135 1.676 1.296-.044 3.837-.85 5.214-1.326 2.266-3.9 4.663-7.014 4.702-.49.006-.721-.63-.251-.823 2.384-.98 4.113-1.881 5.604-3.84.683-.897 1.2-1.926 1.593-2.94.162-.42.17-.818.188-1.217-1.588.846-3.368 1.424-4.937 2.336-1.044.606-1.917 1.326-2.645 2.211-.906 1.102-.495 2.356-.48 3.593.001.137-.197.257-.34.17-1.952-1.186-1.142-3.635.244-5 1.996-1.967 5.164-3.996 8.28-4.166"/></svg>
